X:541
T:The Kentish Cricketers
C:Rutherford, 1756
M:2/4
L:1/8
R:Reel
S:Colin Hume's website,  colinhume.com  - chords can also be printed below the stave.
Q:1/4=116
%%MIDI gchord fzczfzcz
%%MIDI ratio 3 1
K:D
P:A
|: B | "D"AFdF | AFDB | "D"AF de | "A7"c2 EF/G/ | "D"AF dF | "D"AF Df | "Em"e>d "A7"ef | "D"d/d/d d :| z |
P:B
|: "D"df/g/ af | "G"bg "D"af | "E7"f>e df | "A"e/e/e "A7"ef | "D"df/g/ af | "G"bg "D"af | "Em"e>d "A7"ef | "D"d/d/d d2 :|

